X:164
T:Mayor of Garratt, The
M:2/4
L:1/8
B:Thompson's Compleat Collection of 200 Favourite Country Dances, vol. 2 (London, 1765)
Z:Transcribed and edited by Flynn Titford-Mock, 2007
Z:abc's:AK/Fiddler's Companion
K:D
(DF)(FA) | (FA)(Ad) | (cd)(ef) | (e/d/c/B/) (A/G/F/E/) | (DF)(FA) | (FA)(Ad) | (c/d/e/d/) (c/B/A/^G/) | A2A2 :|
|: (Ac)(ce) | (ce)(ea) | (gf)(ed) | (e/f/e/d/) (c/d/c/B/) | (Ac)(ce) | (ce)(ea) | (f/g/a/g/) (f/e/d/c/) | d2 D2 :|

